X:821
T:Off to California
M:4/4
L:1/8
K:G
P:A
(3DEF|"G"G>FG>B "D7"A>GE>D|"G"G>Bd>g "C"e2"D"(3def|"G"g>fg>d e>dB>G|"Am"A>BA>G "D"E2(3DEF|
"G"G>FG>B "D7"A>GE>D|"G"G>Bd>g "C"e2"D"(3def|"G"g>fg>d e>dB>G|"D"A>BA>F "G"G2:|
P:B
|:d2|"Em"g>fe>g "D"f>ed>f|"C"e>de>f "D7"e>dB>d|"G"g>fg>d e>dB>G|"Am"A>BA>G "D"E2(3DEF|
"G"G>FG>B "D7"A>GE>D|"G"G>Bd>g "C"e2"D"(3def|"G"g>fg>d e>dB>G|"D"A>BA>F "G"G2:|



%%newpage
%%textfont * 20
%%text H4 (1.0)
%%textfont * 12



